X: 10046
T: Dick Harmon's
R: reel
M: 4/4
K: Adorian
EA (3AAA EA (3AAA|EAGB cABG|EGGF FGGA|Bdge dBAG|
EA (3AAA EA (3AAA|EAGB cdef|g2 eg dBGB|cABG EA:|
eaab agef|gedc BG (3GGG|DEGA BGBd|gedc BG (3GGG|
eaab agef|gabg agef|g2 eg dBGB|cABG EA:|

